X: 10665
T: Down The Broom
R: reel
M: 4/4
K: Amixolydian
G|EAAB A2 (3Bcd|eggf (3ege dc|BGGA GEDE|GAcA dA B2|
EAAB A2 (3Bcd|eggf ge d2|dggf gdbg|(3bge dB BA A:|
g|aaea ageg|aeba agea|bgdg egde|gabg ageg|
aaea ageg|aeba agee|dgga bgag|gedB BA A:|

